src/assets/images/icons/settings-2-line.svg

<svg width="24" height="24" viewBox="0 0 24 24" fill="none" xmlns="http://www.w3.org/2000/svg">
<g clip-path="url(#clip0_58_16644)">
<path d="M8.68601 3.99988L11.293 1.39288C11.4805 1.20541 11.7348 1.1001 12 1.1001C12.2652 1.1001 12.5195 1.20541 12.707 1.39288L15.314 3.99988H19C19.2652 3.99988 19.5196 4.10524 19.7071 4.29278C19.8946 4.48031 20 4.73467 20 4.99988V8.68588L22.607 11.2929C22.7945 11.4804 22.8998 11.7347 22.8998 11.9999C22.8998 12.265 22.7945 12.5194 22.607 12.7069L20 15.3139V18.9999C20 19.2651 19.8946 19.5195 19.7071 19.707C19.5196 19.8945 19.2652 19.9999 19 19.9999H15.314L12.707 22.6069C12.5195 22.7944 12.2652 22.8997 12 22.8997C11.7348 22.8997 11.4805 22.7944 11.293 22.6069L8.68601 19.9999H5.00001C4.73479 19.9999 4.48044 19.8945 4.2929 19.707C4.10536 19.5195 4.00001 19.2651 4.00001 18.9999V15.3139L1.39301 12.7069C1.20554 12.5194 1.10022 12.265 1.10022 11.9999C1.10022 11.7347 1.20554 11.4804 1.39301 11.2929L4.00001 8.68588V4.99988C4.00001 4.73467 4.10536 4.48031 4.2929 4.29278C4.48044 4.10524 4.73479 3.99988 5.00001 3.99988H8.68601ZM6.00001 5.99988V9.51488L3.51501 11.9999L6.00001 14.4849V17.9999H9.51501L12 20.4849L14.485 17.9999H18V14.4849L20.485 11.9999L18 9.51488V5.99988H14.485L12 3.51488L9.51501 5.99988H6.00001ZM12 15.9999C10.9391 15.9999 9.92173 15.5785 9.17158 14.8283C8.42143 14.0782 8.00001 13.0608 8.00001 11.9999C8.00001 10.939 8.42143 9.9216 9.17158 9.17146C9.92173 8.42131 10.9391 7.99988 12 7.99988C13.0609 7.99988 14.0783 8.42131 14.8284 9.17146C15.5786 9.9216 16 10.939 16 11.9999C16 13.0608 15.5786 14.0782 14.8284 14.8283C14.0783 15.5785 13.0609 15.9999 12 15.9999ZM12 13.9999C12.5304 13.9999 13.0391 13.7892 13.4142 13.4141C13.7893 13.039 14 12.5303 14 11.9999C14 11.4695 13.7893 10.9607 13.4142 10.5857C13.0391 10.2106 12.5304 9.99988 12 9.99988C11.4696 9.99988 10.9609 10.2106 10.5858 10.5857C10.2107 10.9607 10 11.4695 10 11.9999C10 12.5303 10.2107 13.039 10.5858 13.4141C10.9609 13.7892 11.4696 13.9999 12 13.9999Z" fill="#181D27"/>
</g>
<defs>
<clipPath id="clip0_58_16644">
<rect width="24" height="24" fill="white"/>
</clipPath>
</defs>
</svg>

<svg xmlns="http://www.w3.org/2000/svg" width="24" height="24" fill="none" viewBox="0 0 24 24"><g clip-path="url(#a)"><path fill="#181d27" d="m8.686 4 2.607-2.607a1 1 0 0 1 1.414 0L15.314 4H19a1 1 0 0 1 1 1v3.686l2.607 2.607a1 1 0 0 1 0 1.414L20 15.314V19a1 1 0 0 1-1 1h-3.686l-2.607 2.607a1 1 0 0 1-1.414 0L8.686 20H5a1 1 0 0 1-1-1v-3.686l-2.607-2.607a1 1 0 0 1 0-1.414L4 8.686V5a1 1 0 0 1 1-1zM6 6v3.515L3.515 12 6 14.485V18h3.515L12 20.485 14.485 18H18v-3.515L20.485 12 18 9.515V6h-3.515L12 3.515 9.515 6zm6 10a4 4 0 1 1 0-8 4 4 0 0 1 0 8m0-2a2 2 0 1 0 0-4 2 2 0 0 0 0 4"/></g><defs><clipPath id="a"><path fill="#fff" d="M0 0h24v24H0z"/></clipPath></defs></svg>
